X: 1338
T: The Merry Harriers
R:Reel
N:1st setting
N:Collected by F. O'Neill
B:O'Neill's 1338
Z:Transcribed by Trish O'Nei
M:C|
L:1/8
K:G
e>A (3AAAg2(fg)|eAAc BGG2|e>A (3AAAg2(fg)|1afge dgfg:|2afg"H"ed2 (^cd)||
eaa^g ef=gf|eaa^g ed^cd|eaa^g efgb|1afged2^cd:|2afge dg"D.C."fg|]


